dist/svg/u1F63A.svg

<?xml version="1.0" encoding="UTF-8"?><svg id="Layer_1" xmlns="http://www.w3.org/2000/svg" viewBox="0 0 40 40"><g><g><path id="SVGID" d="M26.56156,4.83946c-.6036-.53633-1.54692-.36313-1.92433,.3507l-1.59388,3.01464c-.28237,.53407-.83695,.86818-1.44108,.86818h-3.20478c-.60412,0-1.15871-.33411-1.44108-.86818l-1.5939-3.01468c-.3774-.71381-1.32071-.887-1.92428-.35065C8.29374,9.41106,2,15.98341,2,20.7822c0,8.11449,8.05875,14.69221,18,14.69221s18-6.57772,18-14.69221c0-4.79881-6.2938-11.37146-11.43844-15.94274Z" style="fill:#ffb72d;"/><path d="M37.69436,18.83266l-3.38329,1.72463c-.78332,.39924-.78332,1.51836,0,1.91761l3.20772,1.63502c.30434-1.07085,.48121-2.18132,.48121-3.32773,0-.62239-.11007-1.2757-.30564-1.94954Z"/><path d="M2.30564,18.83266l3.38329,1.72463c.78332,.39924,.78332,1.51836,0,1.91761l-3.20772,1.63502c-.30434-1.07085-.48121-2.18132-.48121-3.32773,0-.62239,.11007-1.2757,.30564-1.94954Z"/></g><g><path id="SVGID-2" d="M12.13588,23.18078c-.97709,0-1.42921,.73173-1.2359,1.52132,.85568,3.49501,4.60179,6.12662,9.09348,6.12662s8.2378-2.63161,9.09348-6.12662c.19331-.78959-.06057-1.44358-1.03766-1.44358l-15.91339-.07774Z" style="fill:#ff5e00;"/><path d="M28.04927,23.25852c-1.68952,1.26546-4.59948,2.10096-7.90592,2.10096-3.37368,0-6.3346-.86983-8.00747-2.17869l15.91339,.07774Z" style="fill:#fff;"/></g><path d="M19.19305,19.21042h1.79906c.88139,0,1.35192,.82374,.77073,1.34928l-.89953,.81338c-.40836,.36925-1.13309,.36925-1.54145,0l-.89953-.81338c-.5812-.52553-.11066-1.34928,.77073-1.34928Z" style="fill:#ff5543;"/><g><circle cx="15.58945" cy="16.62702" r="2.03622"/><circle cx="24.41055" cy="16.62702" r="2.03622"/></g></g><rect width="40" height="40" style="fill:none;"/></svg>

<svg id="Layer_1" data-name="Layer 1" xmlns="http://www.w3.org/2000/svg" viewBox="0 0 40 40"><defs><style>.cls-1{fill:#ffb72d;}.cls-2{fill:#ff5e00;}.cls-3{fill:#fff;}.cls-4{fill:#ff5543;}.cls-5{fill:none;}</style></defs><path id="SVGID" class="cls-1" d="M26.562,4.839a1.243,1.243,0,0,0-1.925.351L23.043,8.205a1.63,1.63,0,0,1-1.441.868H18.4a1.631,1.631,0,0,1-1.441-.868L15.363,5.19a1.243,1.243,0,0,0-1.925-.351C8.294,9.411,2,15.983,2,20.782,2,28.9,10.059,35.474,20,35.474S38,28.9,38,20.782C38,15.983,31.706,9.411,26.562,4.839Z"/><path d="M37.694,18.833l-3.383,1.724a1.077,1.077,0,0,0,0,1.918l3.208,1.635A12.148,12.148,0,0,0,38,20.782,7.02,7.02,0,0,0,37.694,18.833Z"/><path d="M2.306,18.833l3.383,1.724a1.077,1.077,0,0,1,0,1.918L2.481,24.11A12.148,12.148,0,0,1,2,20.782,7.02,7.02,0,0,1,2.306,18.833Z"/><path id="SVGID-2" data-name="SVGID" class="cls-2" d="M12.136,23.181A1.173,1.173,0,0,0,10.9,24.7c.856,3.495,4.6,6.127,9.093,6.127S28.231,28.2,29.087,24.7c.193-.789-.061-1.443-1.038-1.443Z"/><path class="cls-3" d="M28.049,23.259a13.757,13.757,0,0,1-7.906,2.1c-3.373,0-6.334-.869-8.007-2.178Z"/><path class="cls-4" d="M19.193,19.21h1.8c.881,0,1.352.824.771,1.35l-.9.813a1.211,1.211,0,0,1-1.541,0l-.9-.813C17.841,20.034,18.312,19.21,19.193,19.21Z"/><circle cx="15.589" cy="16.627" r="2.036"/><circle cx="24.411" cy="16.627" r="2.036"/><rect class="cls-5" width="40" height="40"/></svg>
